Printex-remake/img/icons/catalog/12.svg

<svg width="129" height="98" viewBox="0 0 129 98" fill="none" xmlns="http://www.w3.org/2000/svg">
<g clip-path="url(#clip0)">
<path d="M79.8851 10L127.878 33.9952L114.414 41.7682L79.8851 10Z" fill="#E6E6E6"/>
<path d="M108.101 50.5212C104.945 54.1621 98.5515 56.3741 93.8204 55.4617C89.0893 54.5494 100.098 53.2659 103.254 49.625C106.41 45.9841 100.518 41.3645 105.249 42.2768C109.98 43.1892 111.257 46.8803 108.101 50.5212Z" fill="#E6E6E6"/>
<path d="M65.6955 33.5375L6.38497 68.0001L42.2419 88.8552L101.552 54.3926L104.826 51.1408C106.937 48.7289 107.967 45.6134 108.218 44.3572L108.595 43.6034C107.69 40.287 109.474 37.1967 110.479 36.0661C113.193 31.5436 116.132 31.1668 117.263 31.5436L84.5909 12.1927C82.179 10.6852 80.571 10.5596 80.0685 10.6852C77.958 10.6852 75.6717 13.1977 74.7924 14.454C72.5311 16.7152 72.1542 23.4988 72.1542 23.8756C71.8527 27.4936 67.7228 31.8244 65.6955 33.5375Z" fill="#F2F2F2"/>
<circle r="8.7243" transform="matrix(0.98191 0.18935 -0.654985 0.755642 118.666 39.2444)" fill="#E6E6E6"/>
<path d="M63.6952 32.5375L2.44336 67.8987L40.3003 89.7538L101.552 54.3926" stroke="black" stroke-linejoin="bevel"/>
<path d="M79.9524 9.68524L116.679 31.1635" stroke="black" stroke-linejoin="bevel"/>
<path d="M108.288 42.4725C108.288 46.843 105.219 52.1576 101.434 54.3429" stroke="black" stroke-linejoin="bevel"/>
<path d="M70.531 19.8604C70.5308 24.6591 67.1874 30.4795 63.0632 32.8608" stroke="black" stroke-linejoin="bevel"/>
<path d="M108.219 42.6601C108.219 38.7058 110.995 33.8974 114.419 31.9201" stroke="black" stroke-linejoin="bevel"/>
<path d="M70.531 20.1027C70.5312 16.4976 73.0621 12.1139 76.1841 10.3113C77.7481 9.40823 79.1637 9.32428 80.1871 9.91863" stroke="black" stroke-linejoin="bevel"/>
<circle r="6.52747" transform="matrix(0.86601 -0.500028 -3.18907e-05 1 113.871 38.6971)" stroke="black" stroke-linejoin="bevel"/>
<circle r="1.82302" transform="matrix(0.86601 -0.500028 -3.18907e-05 1 113.871 38.6971)" stroke="black" stroke-linejoin="bevel"/>
<rect width="27.7018" height="13.3943" transform="matrix(0.866041 -0.499972 0.866041 0.499972 17.3848 64.8501)" fill="white" stroke="black" stroke-linejoin="bevel"/>
<path d="M57.3756 61L33.3848 74.8501" stroke="black" stroke-linejoin="bevel"/>
<path d="M60.3756 64L36.3848 77.8501" stroke="black" stroke-linejoin="bevel"/>
<path d="M67.3847 52.8502L81.6798 44.8527C84.4442 43.3061 86.5383 41.4051 87.7923 39.304L89.2848 36.8031L100.885 43.4998L99.3923 46.0007C98.1383 48.1019 96.0442 50.0029 93.2798 51.5495L78.9847 59.547L67.3847 52.8502Z" fill="white" stroke="black" stroke-linejoin="bevel"/>
<path d="M85.2331 34.0001L83.7405 36.501C82.4866 38.6022 80.3925 40.5031 77.628 42.0497L63.333 50.0472" stroke="black" stroke-linejoin="bevel"/>
<path d="M81.2331 32.0001L79.7405 34.501C78.4866 36.6022 76.3925 38.5031 73.628 40.0497L59.333 48.0472" stroke="black" stroke-linejoin="bevel"/>
</g>
<defs>
<clipPath id="clip0">
<rect width="129" height="98" fill="white"/>
</clipPath>
</defs>
</svg>

<svg width="129" height="98" fill="none" xmlns="http://www.w3.org/2000/svg"><g clip-path="url(#clip0)"><path d="M79.885 10l47.993 23.995-13.464 7.773L79.885 10zm28.216 40.521c-3.156 3.641-9.55 5.853-14.28 4.94-4.732-.912 6.277-2.195 9.433-5.836 3.156-3.64-2.736-8.26 1.995-7.348 4.731.912 6.008 4.603 2.852 8.244z" fill="#E6E6E6"/><path d="M65.695 33.538L6.385 68l35.857 20.855 59.31-34.462 3.274-3.252c2.111-2.412 3.141-5.528 3.392-6.784l.377-.754c-.905-3.316.879-6.406 1.884-7.537 2.714-4.522 5.653-4.9 6.784-4.522L84.591 12.193c-2.412-1.508-4.02-1.633-4.522-1.508-2.111 0-4.397 2.513-5.277 3.769-2.26 2.261-2.638 9.045-2.638 9.422-.301 3.618-4.431 7.948-6.459 9.662z" fill="#F2F2F2"/><circle r="8.724" transform="matrix(.98191 .18935 -.65499 .75564 118.666 39.244)" fill="#E6E6E6"/><path d="M63.695 32.538L2.443 67.898 40.3 89.755l61.252-35.361m-21.6-44.709l36.727 21.478m-8.391 11.309c0 4.371-3.069 9.686-6.854 11.87M70.531 19.86c0 4.8-3.344 10.62-7.468 13m45.156 9.8c0-3.954 2.776-8.763 6.2-10.74" stroke="#000" stroke-linejoin="bevel"/><path d="M70.531 20.103c0-3.605 2.531-7.99 5.653-9.792 1.564-.903 2.98-.987 4.003-.392" stroke="#000" stroke-linejoin="bevel"/><circle r="6.527" transform="matrix(.86601 -.50003 -.00003 1 113.871 38.697)" stroke="#000" stroke-linejoin="bevel"/><circle r="1.823" transform="matrix(.86601 -.50003 -.00003 1 113.871 38.697)" stroke="#000" stroke-linejoin="bevel"/><path transform="scale(1.22477 .70707) rotate(-45 117.81 28.724)" fill="#fff" stroke="#000" stroke-linejoin="bevel" d="M0 0h27.702v13.394H0z"/><path d="M57.376 61L33.385 74.85M60.376 64L36.385 77.85" stroke="#000" stroke-linejoin="bevel"/><path d="M67.385 52.85l14.295-7.997c2.764-1.547 4.858-3.448 6.112-5.549l1.493-2.5 11.6 6.696-1.493 2.5c-1.254 2.102-3.348 4.003-6.112 5.55l-14.295 7.997-11.6-6.697z" fill="#fff" stroke="#000" stroke-linejoin="bevel"/><path d="M85.233 34l-1.493 2.501c-1.253 2.101-3.347 4.002-6.112 5.549l-14.295 7.997M81.233 32l-1.493 2.501c-1.253 2.101-3.347 4.002-6.112 5.549l-14.295 7.997" stroke="#000" stroke-linejoin="bevel"/></g><defs><clipPath id="clip0"><path fill="#fff" d="M0 0h129v98H0z"/></clipPath></defs></svg>
